build/svg/cmd/lc_titlepagedialog.svg

<?xml version="1.0" encoding="UTF-8" standalone="no"?>
<svg
   xmlns:dc="http://purl.org/dc/elements/1.1/"
   xmlns:cc="http://creativecommons.org/ns#"
   xmlns:rdf="http://www.w3.org/1999/02/22-rdf-syntax-ns#"
   xmlns:svg="http://www.w3.org/2000/svg"
   xmlns="http://www.w3.org/2000/svg"
   xmlns:sodipodi="http://sodipodi.sourceforge.net/DTD/sodipodi-0.dtd"
   xmlns:inkscape="http://www.inkscape.org/namespaces/inkscape"
   viewBox="0 0 24 24"
   version="1.1"
   id="svg6"
   sodipodi:docname="lc_titlepagedialog.svg"
   inkscape:version="0.92.5 (2060ec1f9f, 2020-04-08)"
   inkscape:export-filename="/home/jupiter007/Libreoffice yaru theme fullcolor/build/cmd/lc_titlepagedialog.png"
   inkscape:export-xdpi="95"
   inkscape:export-ydpi="95">
  <metadata
     id="metadata12">
    <rdf:RDF>
      <cc:Work
         rdf:about="">
        <dc:format>image/svg+xml</dc:format>
        <dc:type
           rdf:resource="http://purl.org/dc/dcmitype/StillImage" />
      </cc:Work>
    </rdf:RDF>
  </metadata>
  <defs
     id="defs10" />
  <sodipodi:namedview
     pagecolor="#ffffff"
     bordercolor="#666666"
     borderopacity="1"
     objecttolerance="10"
     gridtolerance="10"
     guidetolerance="10"
     inkscape:pageopacity="0"
     inkscape:pageshadow="2"
     inkscape:window-width="1920"
     inkscape:window-height="1011"
     id="namedview8"
     showgrid="false"
     inkscape:zoom="9.8333333"
     inkscape:cx="-11.440678"
     inkscape:cy="11.59322"
     inkscape:window-x="1920"
     inkscape:window-y="32"
     inkscape:window-maximized="1"
     inkscape:current-layer="svg6" />
  <path
     sodipodi:nodetypes="cccscsccccccccscscccccc"
     inkscape:connector-curvature="0"
     id="path4237-1"
     d="m 6.9941158,2.999709 c -1.2582,0.0145 -2.178891,-0.030604 -2.931641,0.3847656 -0.37637,0.20766 -0.673231,0.5593869 -0.837891,0.9980469 -0.16467,0.43867 -0.224609,0.9595875 -0.224609,1.6171873 v 1.488281 10.5123012 c 0,0.65761 0.0599,1.178577 0.224609,1.617188 0.16468,0.438611 0.461531,0.788524 0.837891,0.996093 0.75272,0.41513 1.673541,0.371649 2.931641,0.386719 h 0.002 10.0058592 0.0039 c 1.25819,-0.0145 2.178891,0.0306 2.931641,-0.384766 0.37637,-0.20766 0.673221,-0.559386 0.837891,-0.998046 0.164539,-0.438671 0.224618,-0.959578 0.224618,-1.617188 V 7.4665058 5.9997088 c 0,-0.6575998 -0.0599,-1.1785773 -0.224609,-1.6171873 -0.16468,-0.4386 -0.461531,-0.7885338 -0.837891,-0.9960937 -0.75277,-0.41513 -1.673601,-0.3716388 -2.931691,-0.3867188 h -0.002 -10.0058592 z"
     style="font-style:normal;font-variant:normal;font-weight:normal;font-stretch:normal;font-size:15px;line-height:125%;font-family:Ubuntu;-inkscape-font-specification:Ubuntu;text-align:center;letter-spacing:0px;word-spacing:0px;writing-mode:lr-tb;text-anchor:middle;display:inline;opacity:0.6;fill:#000000;fill-opacity:1;stroke:none;stroke-width:0.99980211" />
  <path
     inkscape:connector-curvature="0"
     id="path1993"
     d="m 11.983344,4.0268938 c -1.556581,0.010796 -5.1099902,-0.011752 -6.6599412,0.038775 -0.461229,0.042668 -1.016188,0.2064194 -1.15534,0.7099668 -0.218994,0.6353464 -0.108414,1.3337872 -0.145796,1.9819242 -0.0078,2.2970842 -0.02297,9.5964272 0.02152,11.8857792 0.0391,0.461929 0.202551,1.012666 0.698756,1.163666 0.632456,0.225082 1.284144,0.12274 1.935974,0.154298 1.424235,0.0068 4.8505632,0.01102 6.2764202,0.01131 1.704531,3.5e-4 3.408388,-0.005 5.10719,-0.01851 0.511911,-0.01201 1.183699,0.01993 1.584745,-0.405191 0.421097,-0.539783 0.287073,-1.268021 0.322745,-1.903787 0.01187,-2.444323 0.02769,-9.9110942 -0.0219,-12.3567935 C 19.898441,4.8862912 19.777725,4.4253794 19.372578,4.2438563 18.704409,3.9497589 17.946373,4.0758374 17.246657,4.0382836 15.49225,4.026481 13.737783,4.0257992 11.983344,4.0268938 Z"
     style="opacity:1;vector-effect:none;fill:#ffffff;fill-opacity:1;stroke:none;stroke-width:1;stroke-linecap:round;stroke-linejoin:bevel;stroke-miterlimit:4;stroke-dasharray:none;stroke-dashoffset:0;stroke-opacity:1"
     sodipodi:nodetypes="cccccccsccccccc" />
  <path
     inkscape:connector-curvature="0"
     style="fill:#000000;fill-opacity:1"
     d="m 5.9833438,16.999708 v -1 H 17.983344 v 1 z"
     id="path848" />
  <path
     inkscape:connector-curvature="0"
     style="fill:#000000;fill-opacity:1"
     d="M 5.9999998,15 V 14 H 18 v 1 z"
     id="path846" />
  <path
     style="fill:#fa9381;fill-opacity:1;stroke-width:1.63283682"
     d="M 5.9999998,9 V 7.0000004 H 17.983344 V 9 Z"
     id="path2"
     inkscape:connector-curvature="0"
     sodipodi:nodetypes="ccccc" />
  <path
     id="path850"
     d="M 5.9999998,13 V 12 H 18 v 1 z"
     style="fill:#000000;fill-opacity:1"
     inkscape:connector-curvature="0" />
</svg>

<svg xmlns="http://www.w3.org/2000/svg" viewBox="0 0 24 24"><path d="M6.994 3c-1.258.014-2.179-.03-2.932.384a1.88 1.88 0 00-.837.999C3.06 4.82 3 5.343 3 6v12c0 .658.06 1.179.225 1.617.164.44.461.789.837.997.753.415 1.674.371 2.932.386h10.012c1.258-.014 2.179.03 2.932-.384a1.88 1.88 0 00.837-.999c.165-.438.225-.96.225-1.617V6c0-.658-.06-1.179-.225-1.617a1.875 1.875 0 00-.837-.997c-.753-.415-1.674-.371-2.932-.386H6.998z" style="line-height:125%;-inkscape-font-specification:Ubuntu;text-align:center" font-weight="400" font-size="15" font-family="Ubuntu" letter-spacing="0" word-spacing="0" text-anchor="middle" opacity=".6"/><path d="M11.983 4.027c-1.556.01-5.11-.012-6.66.039-.46.042-1.016.206-1.155.71-.219.635-.108 1.333-.146 1.982-.008 2.297-.023 9.596.022 11.885.039.462.202 1.013.699 1.164.632.225 1.284.123 1.936.154 1.424.007 4.85.011 6.276.012 1.704 0 3.408-.005 5.107-.019.512-.012 1.184.02 1.585-.405.421-.54.287-1.268.323-1.904.011-2.444.027-9.911-.022-12.357-.05-.402-.17-.863-.575-1.044-.669-.294-1.427-.168-2.126-.206a715.985 715.985 0 00-5.264-.011z" fill="#fff"/><path d="M5.983 17v-1h12v1zM6 15v-1h12v1z"/><path d="M6 9V7h11.983v2z" fill="#fa9381"/><path d="M6 13v-1h12v1z"/></svg>
